tag-text.svg

<svg fill="currentColor" viewBox="0 0 24 24"><path d="m21.41 11.58-9-9A2 2 0 0 0 11 2H4a2 2 0 0 0-2 2v7a2 2 0 0 0 .59 1.41l9 9A2 2 0 0 0 13 22a2 2 0 0 0 1.41-.59l7-7A2 2 0 0 0 22 13a2 2 0 0 0-.59-1.42M6.5 8A1.5 1.5 0 1 1 8 6.5 1.5 1.5 0 0 1 6.5 8m5.09 7.41-4-4L9 10l4 4m2.59.41-5.5-5.5L11.5 7.5 17 13Z"/></svg>

<svg  viewBox="0 0 24 24" fill="currentColor"><path  d="M21.41 11.58L12.41 2.58A2 2 0 0 0 11 2H4A2 2 0 0 0 2 4V11A2 2 0 0 0 2.59 12.41L11.59 21.41A2 2 0 0 0 13 22A2 2 0 0 0 14.41 21.41L21.41 14.41A2 2 0 0 0 22 13A2 2 0 0 0 21.41 11.58M6.5 8A1.5 1.5 0 1 1 8 6.5A1.5 1.5 0 0 1 6.5 8M11.59 15.41L7.59 11.41L9 10L13 14M15.59 14.41L10.09 8.91L11.5 7.5L17 13Z"/></svg>
